X:130
T:March. JJo.130
S:J.Jones MS,1801,N.Shrops.
A:N Shropshire
Z:Neil Brookes 2006
M:4/4
L:1/8
Q:1/2=80
K:C
ed|c2 ecd2 gf|ec’ba g2fe|f2afe2c’e|d2d>ddzed|!
c2 ecd2 gf|ec’ba g2eg|a2fa b2gb|c’2c>cc2::!
ef|g2ge g2c’g|a2af a2c’a|g2gfe2ce|d2d>dd2ed|!
c2 ecd2 gf|ec’ba g2eg|a2fa b2gb|c’2c>cc2:|

